assets/marketplace/bitfinex.svg

<svg fill="none" height="54" viewBox="0 0 55 54" width="55" xmlns="http://www.w3.org/2000/svg"><rect fill="#172d3e" height="54" rx="12" width="54" x=".006165"/><g fill="#03ca9b"><path d="m13.0298 31.2586c-.2451-3.9642 1.4201-8.3706 4.8493-11.7999 7.4567-7.4566 22.9855-6.4114 23.0737-6.4054-.0424.0615-11.3945 16.5208-24.847 18.0602-1.0399.119-2.0677.1658-3.076.1451z"/><path d="m14.6051 36.327c.3841.6124.8382 1.1859 1.3633 1.7111 4.6029 4.6029 12.9212 3.7474 18.5794-1.9107 7.4779-7.4779 6.405-23.0741 6.405-23.0741-.0411.0924-8.1786 18.3334-21.1117 22.3121-1.7556.5401-3.5155.8548-5.236.9616z"/></g></svg>

<svg width="55" height="54" viewBox="0 0 55 54" fill="none" xmlns="http://www.w3.org/2000/svg">
<rect x="0.00616455" width="54" height="54" rx="12" fill="#172D3E"/>
<path d="M13.0298 31.2586C12.7847 27.2944 14.4499 22.888 17.8791 19.4587C25.3358 12.0021 40.8646 13.0473 40.9528 13.0533C40.9104 13.1148 29.5583 29.5741 16.1058 31.1135C15.0659 31.2325 14.0381 31.2793 13.0298 31.2586Z" fill="#03CA9B"/>
<path d="M14.6051 36.327C14.9892 36.9394 15.4433 37.5129 15.9684 38.0381C20.5713 42.641 28.8896 41.7855 34.5478 36.1274C42.0257 28.6495 40.9528 13.0533 40.9528 13.0533C40.9117 13.1457 32.7742 31.3867 19.8411 35.3654C18.0855 35.9055 16.3256 36.2202 14.6051 36.327Z" fill="#03CA9B"/>
</svg>
